X:21028 
T:CHURCH HILL 
B:DMI.0343
Z:Nordberg/Black
N:No accidentals in source but I suspect that C's 
should be natural. Replace G with D in the K: field
to hear the source version.
R:jig
%Q:1/4=160
M:6/8
L:1/8
K:G
"D modal"
dcA A2D|FAD FED|dcA A2B|dcA GED|
dcA A2D|FAD FED|dcA ABc|dcA GED:|
DED c2A|ded c2c|DED c2e|dcA GED|
DED cBc|ded cde|fdf e2e|dcA GED:|

%%%

